X:46
T:Maccarony Dance THO4.046
M:6/8
L:1/8
Z:vmp. Peter Dunk 2010/11.from a transcription by Fynn Titford-Mock 2007
B:Thompson's Compleat Collection of 200 Favourite Country Dances Volume IV.
Q:3/8=100
K:G
d2 d def|gfe dBG|BBB ccc|efg dBG|d2 d def|gfe dBG|efg BdB|G2 G G3:|
Bdd Bdd|GAB GAB|ccc BBB|FGA FGA|Bdd Bdd|GAB Bcd|efg BdB|G2 G G3:|
